static/img/kroki/bc9a318e465f0b44ca3019f0f347334d.svg

<?xml version="1.0" encoding="us-ascii" standalone="no"?><svg xmlns="http://www.w3.org/2000/svg" xmlns:xlink="http://www.w3.org/1999/xlink" contentStyleType="text/css" height="60px" preserveAspectRatio="none" style="width:231px;height:60px;" version="1.1" viewBox="0 0 231 60" width="231px" zoomAndPan="magnify"><defs/><g><!--class aws_sagemaker_job--><g id="elem_aws_sagemaker_job"><rect codeLine="22" fill="#3D176E" height="39.7891" id="aws_sagemaker_job" rx="2.5" ry="2.5" style="stroke:#000D19;stroke-width:0.5;" width="210" x="7" y="7"/><ellipse cx="22" cy="26.8945" fill="#ADD1B2" rx="11" ry="11" style="stroke:#181818;stroke-width:1.0;"/><path d="M24.9688,32.5352 Q24.3906,32.832 23.75,32.9727 Q23.1094,33.1289 22.4063,33.1289 Q19.9063,33.1289 18.5781,31.4883 Q17.2656,29.832 17.2656,26.707 Q17.2656,23.582 18.5781,21.9258 Q19.9063,20.2695 22.4063,20.2695 Q23.1094,20.2695 23.75,20.4258 Q24.4063,20.582 24.9688,20.8789 L24.9688,23.5977 Q24.3438,23.0195 23.75,22.7539 Q23.1563,22.4727 22.5313,22.4727 Q21.1875,22.4727 20.5,23.5508 Q19.8125,24.6133 19.8125,26.707 Q19.8125,28.8008 20.5,29.8789 Q21.1875,30.9414 22.5313,30.9414 Q23.1563,30.9414 23.75,30.6758 Q24.3438,30.3945 24.9688,29.8164 L24.9688,32.5352 Z " fill="#000000"/><text fill="#D9B8FF" font-family="Helvetica" font-size="17" lengthAdjust="spacing" textLength="168" x="41" y="32.7798">aws_sagemaker_job</text></g><!--SRC=[XP31JiCm38RlUuf8Uu6M2ReUHwK9BXDYt2UtSThG9gaSZseWtXtA08M6RLV_d_n_TgCb2ZGz7uH1KoBvcM-rxO70Y1MH6mhNEH9pfK0jiccuTfOl0XimAEwmUq7M5Ko9fqPNhKNlnLKGtKBLrkJsLXxNCu7rdn5Q3gYY0-zNpAJBFMCW8_DogTIKd2wTBsIQtM24EP98tqYI93BDfyZ5ghDt_n9R_OeY3P-sSOoHPbJnHPsr78b0CZhq9p_f-01IQbkBws3sU7GYY_Hdlcr0kc6a5NG-hF6CX8uFFHRHLPWlfSh-XUzFmTNuEG63ttceqK2Bj7jsfNYRlNy0]--></g></svg>

<svg xmlns="http://www.w3.org/2000/svg" width="231" height="60" viewBox="0 0 231 60"><rect width="210" height="39.789" x="7" y="7" fill="#3D176E" rx="2.5" ry="2.5" style="stroke:#000d19;stroke-width:.5"/><circle cx="22" cy="26.895" r="11" fill="#ADD1B2" style="stroke:#181818;stroke-width:1"/><path d="M24.969 32.535q-.578.297-1.219.438-.64.156-1.344.156-2.5 0-3.828-1.64-1.312-1.657-1.312-4.782t1.312-4.781q1.328-1.656 3.828-1.656.703 0 1.344.156.656.156 1.219.453v2.719q-.625-.578-1.219-.844-.594-.281-1.219-.281-1.343 0-2.031 1.078-.687 1.062-.687 3.156t.687 3.172q.688 1.062 2.031 1.062.625 0 1.219-.265.594-.281 1.219-.86z"/><text x="41" y="32.78" fill="#D9B8FF" font-family="Helvetica" font-size="17" textLength="168">aws_sagemaker_job</text></svg>
